X: 1
T: Morrison's Jig
M: 6/8
L: 1/8
R: jig
K: EDor
|: "Em"~E3 BEB | EBE "D"AFD | "Em"~E3 BEB | "G"dcB "D"AFD | "Em"~E3 BEB | EBE "D"AFD | "G"~G3 "D"FGA | "Em"[dB]AG "D"FED :|
|| "Em"Bee fee | aee "D"fed | "Em"Bee fee | "D"fag fed | "Em"Bee fee | aee "D"fef | "G"gfe "D"d2A | "Em"BAG "D"FED ||
|| "Em"Bee fee | aee "D"fed | "Em"Bee fee | "D"faf def | "G"~g3 gfe | "D7"def "G"g2d | "D"edc d2A | "(Bm)"BAG FED |]
